X: 1
T:Unknown
S:Session, Green Tree, Edinburgh
Z:Nigel Gatherer
M:6/8
L:1/8
K:D
D2 A BAB|def a2 f|aba f2 e|dBB BAB|D2 A BAB|def a2 f|aba f2 e|fdB d3:|]
faa faa|afe f3|aaa f2 e|dBB BAB|D2 A BAB|def a2 f|aba f2 e|fdB d3:|]
